!!!OTL: Lasset die feurigen Bomben erschallen.
!!!OTL-incipit: LASSET DIE FEURIGEN BOMBEN ERSCHALLEN
!!!COM: Studentenweise
!!!ARE: Europa, Mitteleuropa, Deutschland
!!!SCT: F0539
!!!TXL: @@DE
!!!YEM: Copyright 1995, estate of Helmut Schaffrath.
**kern	**text
*ICvox	*
*clefG2	*
*M2/4	*
*k[f#]	*
*G:	*
=1	=1
!LO:TX:a:t=Das ʒweite Mal Alle.	!
!LO:TX:a:t=Lustig.	!
!LO:TX:a:t=P:only the highest voice encoded:problem	!
{4g	Laſ-
8.g	-ſet
16a	die
=2	=2
4b/	feu-
8b/	-ri-
8b/	-gen
=3	=3
8.aL	Bom-
16gJ	.
8a	-ben
8b/	er-
=4	=4
4g'	-ſchallen,
4d'}	.
=5	=5
{4b/''	piff,
4b/''	paff,
=6	=6
4.dd	puff,
8dd	hu-
=7	=7
8.cc/L	-ra-
16bJ	.
8.cc/L	-ſa-
16ddJ	.
=8	=8
4b/	-ſa!
4r}	.
=9	=9
{4g	Laſ-
8.g	-ſet
16a	die
=10	=10
4b/	feu-
8b/	-ri-
8b/	-gen
=11	=11
8.aL	Bom-
16gJ	.
8a	-ben
8b/	er-
=12	=12
4g'	-ſchallen,
4d'}	.
=13	=13
{4b/''	piff,
4b/''	paff,
=14	=14
4.dd	puff,
8dd	hu-
=15	=15
8.cc/L	-ra-
16bJ	.
8.cc/L	-ſa-
16ddJ	.
=16	=16
4b/	-ſa!
4r}	.
=17	=17
{8dd/	un-
8dd/	-ſer
8dd/	Bruder
8dd/	.
=18	=18
4ee	R.
4ee	R.
=19	=19
4cc/	der
4cc/	ſoll
=20	=20
4dd/	le-
4dd/}	-ben,
=21	=21
{4b/	und
4b/	das
=22	=22
4cc/	gan-
4cc/	-ʒe
=23	=23
4a	R.
(>8a/	R-
8b/)	-ſche
=24	=24
4g	Haus!
4r}	.
=25	=25
{4dd/	Und
4dd/	ſein
=26	=26
4ee	Mädchen
4ee	.
=27	=27
4cc/	auch
4cc/	da-
=28	=28
4dd/	-ne-
4dd/}	-ben!
=29	=29
{4b/	drauf
4b/	trink'
=30	=30
4cc/	er
4cc/	ſein
=31	=31
4a	Gläschen
(>8a	.
8b/)	.
=32	=32
4g	aus!
4r}	.
=33	=33
!LO:TX:a:t=Solo. Dann Alle.	!
{2dd^^	Aus,
=34	=34
2ee^^}	aus,
=35	=35
{2cc^^	aus,
=36	=36
2dd^^}	aus!
=37	=37
{2dd^^	Aus,
=38	=38
2ee^^}	aus,
=39	=39
{2cc^^	aus,
=40	=40
2dd^^}	aus!
=41	=41
!LO:TX:a:t=Das ʒweite Mal Alle.	!
{4dd	Lee-
8dd	-ret
8dd	die
=42	=42
4ee	Gläſer,
4ee	.
=43	=43
8cc/	ſchenkt
8cc/	ſie
8cc/	wie-
8cc/	-der
=44	=44
2dd}	ein!
=45	=45
{4b/	Laſ-
8b/	-ſet
8b/	uns
=46	=46
4cc/	Al-
4cc/	-le
=47	=47
8.aL	lu-
16gJ	.
8.aL	-ſtig
16bJ	.
=48	=48
4g	ſein!
4r}	.
=49	=49
{4dd	Lee-
8dd	-ret
8dd	die
=50	=50
4ee	Gläſer,
4ee	.
=51	=51
8cc/	ſchenkt
8cc/	ſie
8cc/	wie-
8cc/	-der
=52	=52
2dd}	ein!
=53	=53
{4b/	Laſ-
8b/	-ſet
8b/	uns
=54	=54
4cc/	Al-
4cc/	-le
=55	=55
8.aL	lu-
16gJ	.
8.aL	-ſtig
16bJ	.
=56	=56
4g	ſein!
4r}	.
==;	==;
!!!AGN: Studenten -, Trink - Lied
!!!ONB: ESAC (Essen Associative Code) Database: FINK
!!!AMT: simple duple
!!!AIN: vox
!!!EED: Helmut Schaffrath
!!!EEV: 1.0
!!!RDF**kern: > = above
!!!GTL: Studentenlieder
!!Text: Studentenlied
!!!source: Musikalischer Hausschatz der Deutschen. Eine Sammlung von über 1000 Liedern und Gesängen mit Singstimmen und Klavierbegleitung. Leipzig, Litterarisches Verlags-Haus.
!!!page: 345
!!!URL-scan: https://www.digitale-sammlungen.de/en/view/bsb11144622?page=323
!!!ENC: Anna Maria Matuszewska
!!!EEV: 2024/02/08
*-	*-